X:1
T:D Major, A Major Samuel Holyoke, 1791
T:John Lathrop, 1740-1816       88. 88. (L. M.) 
T:Boxford Transcribed from Harmonia Americana, 1791.
%%score [ 1 ( 2 3 ) 4 ]
L:1/8
Q:1/4=100
M:4/4
K:D
V:1 treble nm="Treble" snm="Tr."
V:2 treble-8 nm="Tenor" snm="T."
V:3 treble-8 
V:4 bass nm="Bass" snm="B."
V:1
 d2 | AGFE FGAd | AGFE F3 A | DE FG A3 d | B2 ^G2 A3 A | A3 d cdee | f3 f e3 z | f4 fedg | %8
 f3 e d2 c2 ||[K:A] d4 z2 z A | e2 Td2 c3 A | e2 Td2 c3 e | AB cd e2 c2 | de fg a3 z | f4 d3 B | %15
 e2 e2 fe ed | c3 B cA ce | a2 g2 f2 g2 | a8 |] %19
V:2
"^This   is           the                 when  Christ   arose,   And  triumph'd  o'er  his   hellish  foes;  When  he         a – scen – ded" F2 | %1
 FEDA"^day" AGFF | FEAG F3 d | dc de f3 f | d>c B2 c3 e | dcdf edcB | %6
"^to   the   sky,         Crown'd with    the   palm       of      vic  –  to         –        ry.                  Rejoice, my soul, and sing his praise,  Pro–" A2 d2 c3 z | %7
 A4 deAc | dc d c/B/ AG FE ||[K:A] F4 z2 z c | c2 TB2 A3 e | c2 TB2 A3 B | %12
"^–claim how wondrous are his ways;     Swell, swell the anthem   to     his    name,  Exalt   his   works   of    grace  and  fame." ce ed c2 e2 | %13
 Ac B2 c3 z | d4 f3 e | c2 c>B A2 AB | e3 e e2 e2 | e2 e2 d>c B2 | c8 |] %19
V:3
 x2 | x x x x DEF x | x8 | x8 | x8 | x8 | x8 | x8 | x8 ||[K:A] x8 | x8 | x8 | x8 | x8 | x8 | x8 | %16
 x8 | x8 | x8 |] %19
V:4
 D,2 | D,3 A,, D,2 D,2 | A,2 A,,2 D,3 D, | A,2 F,2 D,3 B,, | G,2 E,2 A,,3 C, | D,E,F,D, A,3 A, | %6
 D2 D,2 A,3 z | D4 A,G,F,E, | D,E,F,G, A,2 A,,2 ||[K:A] D,4 z2 z A, | A,2 A,2 A,3 A, | %11
 A,2 A,2 A,3 E, | %12
 A,G, A,B,"^Boxford, Massachusetts is the town where Holyoke was born and spent his youth. \nJohn Lathrop was a congregationalist minister in Boston, a supporter of the American Revolution.\nSee the shapenote edition, where the last part (measure 10 ff.) has been transposed into D major." C2 A,2 | %13
 DC DE A,3 z | D4 B,3 E | A,2 C2 DC CB, | A,3 E, [A,,A,]2 [A,,A,]2 | %17
 [A,,A,]>[B,,B,] [C,C]2 [D,D]2 [E,E]2 | [A,,A,]8 |] %19

